img/advantages__icon--01.svg

<svg width="73" height="73" viewBox="0 0 73 73" fill="none" xmlns="http://www.w3.org/2000/svg">
<g filter="url(#filter0_d)">
<path d="M23.4858 54.2854L22.1517 52.404C21.8685 52.0044 21.3153 51.9105 20.9162 52.1941C20.5172 52.4777 20.4233 53.0315 20.7066 53.4311L22.0407 55.3125C22.2135 55.5562 22.4866 55.6862 22.7641 55.6862C22.9415 55.6862 23.1205 55.633 23.2762 55.5224C23.6753 55.2387 23.7692 54.6849 23.4858 54.2854Z" fill="url(#paint0_linear)"/>
<path d="M33.7089 54.6167L32.2571 47.6889C31.5511 44.3201 29.591 41.4072 26.738 39.4865L23.6383 37.3997C22.3953 36.5631 20.7246 36.743 19.6857 37.8036V27.1135C19.6857 25.7103 18.7302 24.5181 17.362 24.2141C16.479 24.0177 15.5682 24.2304 14.8628 24.797C14.1574 25.3637 13.7529 26.208 13.7529 27.1135V40.8693C13.7529 42.6715 14.3037 44.4009 15.3457 45.8705L16.926 48.0991C17.0988 48.3428 17.3719 48.4728 17.6493 48.4728C17.8267 48.4728 18.0058 48.4196 18.1615 48.309C18.5605 48.0253 18.6544 47.4716 18.3711 47.072L16.7908 44.8433C15.9628 43.6755 15.5252 42.3013 15.5252 40.8693V27.1135C15.5252 26.749 15.6881 26.4091 15.972 26.181C16.2558 25.9529 16.6224 25.8672 16.9781 25.9463C17.5288 26.0686 17.9135 26.5486 17.9135 27.1135V38.0272C17.9135 39.5721 18.4804 41.044 19.5104 42.1892C19.5545 42.2422 19.5999 42.2946 19.6478 42.3454C20.2363 42.9697 20.9282 43.7054 21.5798 44.3988L22.4921 45.3709C22.495 45.374 22.4982 45.3767 22.5012 45.3797C23.2816 46.2107 23.8572 46.8244 23.8692 46.8371C24.2041 47.1942 24.765 47.212 25.1218 46.8765C25.4785 46.5411 25.4961 45.9797 25.161 45.6225C25.1449 45.6053 24.1076 44.4994 22.923 43.2388L20.8912 41.0738C20.8861 41.0683 20.8814 41.0626 20.8762 41.0571C20.3999 40.4866 20.4058 39.6595 20.9051 39.0951C21.3469 38.596 22.0969 38.5001 22.6496 38.8721L25.7491 40.959C28.2168 42.6202 29.9121 45.1396 30.5226 48.0533L31.9745 54.9812C32.0622 55.3993 32.4305 55.6863 32.8409 55.6863C32.9011 55.6863 32.9624 55.6801 33.0237 55.6672C33.5026 55.5666 33.8094 55.0962 33.7089 54.6167Z" fill="url(#paint1_linear)"/>
<path d="M20.3183 49.8182L20.3126 49.8102C20.0281 49.4113 19.4749 49.3187 19.0765 49.6033C18.6782 49.8879 18.5857 50.442 18.8699 50.8407L18.8756 50.8487C19.0485 51.0914 19.321 51.2207 19.5977 51.2207C19.7758 51.2207 19.9556 51.1671 20.1116 51.0556C20.5098 50.771 20.6024 50.217 20.3183 49.8182Z" fill="url(#paint2_linear)"/>
<path d="M58.0117 24.7971C57.3063 24.2305 56.3951 24.0181 55.5125 24.2142C54.1444 24.5181 53.1888 25.7104 53.1888 27.1136V37.8037C52.15 36.7431 50.4791 36.5632 49.2362 37.3998L46.1364 39.4865C43.2834 41.4071 41.3234 44.3201 40.6174 47.6889L39.1655 54.6168C39.0651 55.0963 39.3718 55.5666 39.8508 55.6672C39.9121 55.6801 39.9734 55.6863 40.0336 55.6863C40.444 55.6863 40.8123 55.3992 40.9 54.9811L42.3518 48.0532C42.9624 45.1396 44.6576 42.6201 47.1253 40.959L50.225 38.8722C50.7775 38.5001 51.5275 38.596 51.9695 39.0951C52.4682 39.6588 52.4748 40.4846 52.0002 41.055C51.9945 41.0613 51.9891 41.0676 51.9835 41.0739C51.9835 41.0739 47.7296 45.6055 47.7136 45.6225C47.3785 45.9797 47.3962 46.5411 47.7528 46.8765C48.1096 47.212 48.6703 47.1943 49.0054 46.8371C49.0174 46.8244 52.6383 42.9698 53.2268 42.3455C53.2747 42.2947 53.3201 42.2423 53.3642 42.1893C54.3941 41.0441 54.9611 39.5722 54.9611 38.0273V27.1135C54.9611 26.5486 55.3458 26.0686 55.8966 25.9463C56.2522 25.8673 56.6187 25.953 56.9027 26.181C57.1866 26.4091 57.3495 26.7489 57.3495 27.1135V40.8694C57.3495 42.3014 56.9118 43.6756 56.0838 44.8434L49.3891 54.2854C49.1058 54.6849 49.1996 55.2387 49.5986 55.5224C49.7544 55.633 49.9334 55.6862 50.1108 55.6862C50.3882 55.6862 50.6614 55.5562 50.8341 55.3125L57.5289 45.8706C58.5709 44.4009 59.1217 42.6716 59.1217 40.8694V27.1135C59.1215 26.208 58.717 25.3638 58.0117 24.7971Z" fill="url(#paint3_linear)"/>
<path d="M47.6611 27.2664L46.0846 26.8893V26.6063C47.1092 25.8877 47.7811 24.6977 47.7811 23.3529V21.301C47.7811 19.1115 46.002 17.3303 43.8152 17.3303C42.8338 17.3303 41.9352 17.6898 41.242 18.2832C40.4702 16.3908 38.6131 15.0535 36.4488 15.0535C34.2819 15.0535 32.4228 16.3943 31.6527 18.2902C30.9584 17.6926 30.0566 17.3301 29.0713 17.3301C26.8844 17.3301 25.1053 19.1113 25.1053 21.3008V21.4372V23.3528C25.1053 24.6975 25.7772 25.8875 26.8018 26.6061V26.8891L25.2253 27.2662C23.343 27.7164 22.0283 29.3841 22.0283 31.3217V32.9786C22.0283 33.4685 22.4251 33.8657 22.9144 33.8657H26.9864C26.9801 33.9733 26.9757 34.0815 26.9757 34.1905V37.3806C26.9757 37.8706 27.3725 38.2678 27.8619 38.2678H33.1884C33.6777 38.2678 34.0745 37.8706 34.0745 37.3806C34.0745 36.8907 33.6777 36.4935 33.1884 36.4935H32.2728V34.6601C32.2728 34.1701 31.876 33.7729 31.3867 33.7729C30.8974 33.7729 30.5006 34.1701 30.5006 34.6601V36.4936H28.7481V34.1907C28.7481 32.4796 29.9089 31.0061 31.5707 30.6074L34.0025 30.024L35.6298 33.7308C35.7713 34.0529 36.0896 34.261 36.4409 34.261H36.441C36.7924 34.261 37.1107 34.053 37.2521 33.7309L38.8778 30.0296L41.3018 30.6093C42.9653 31.0072 44.1271 32.4809 44.1271 34.1933V36.4936H42.3746V34.6601C42.3746 34.1701 41.9778 33.7729 41.4885 33.7729C40.9991 33.7729 40.6023 34.1701 40.6023 34.6601V36.4936H39.5981C39.1088 36.4936 38.712 36.8908 38.712 37.3808C38.712 37.8708 39.1088 38.268 39.5981 38.268H45.0133C45.5026 38.268 45.8994 37.8708 45.8994 37.3808V34.1933C45.8994 34.0834 45.895 33.9744 45.8886 33.8659H49.972C50.4614 33.8659 50.8582 33.4687 50.8582 32.9787V31.3218C50.8582 29.3842 49.5435 27.7165 47.6611 27.2664ZM43.8152 19.1045C44.9762 19.1045 45.9293 20.0122 46.0041 21.1559H44.7721C43.7364 21.1559 42.7172 20.9063 41.801 20.4309C42.138 19.6513 42.9141 19.1045 43.8152 19.1045ZM41.6215 23.2232C41.6225 23.18 41.6247 23.137 41.6247 23.0935V22.3034C42.6191 22.7154 43.6883 22.9303 44.7721 22.9303H46.0089V23.3528C46.0089 24.5638 45.0248 25.5491 43.8152 25.5491C42.6055 25.5491 41.6215 24.5638 41.6215 23.3528V23.2232ZM33.0452 20.2355C33.0452 18.3565 34.572 16.8278 36.4488 16.8278C38.1416 16.8278 39.5495 18.0715 39.8095 19.6939L38.3177 18.8164C37.9446 18.5969 37.4677 18.6794 37.1897 19.0116C36.4607 19.8826 35.3915 20.3822 34.2564 20.3822H33.0452V20.2355ZM29.0713 19.1045C29.9724 19.1045 30.7484 19.6514 31.0855 20.4308C30.1693 20.9062 29.1501 21.1558 28.1144 21.1558H26.8824C26.9572 20.0122 27.9104 19.1045 29.0713 19.1045ZM26.8776 22.9302H28.1144C29.1993 22.9302 30.2697 22.7149 31.265 22.302V23.3527C31.265 24.5637 30.281 25.549 29.0713 25.549C27.8617 25.549 26.8776 24.5638 26.8776 23.3528V22.9302ZM31.1578 28.8818C29.4145 29.3 28.0443 30.517 27.3922 32.0915H23.8006V31.3217C23.8006 30.2087 24.5557 29.2506 25.6371 28.992L27.8939 28.4523C28.2927 28.3569 28.5741 28 28.5741 27.5894V27.2911C28.7372 27.3116 28.9029 27.3234 29.0713 27.3234C29.2386 27.3234 29.4031 27.3118 29.5649 27.2916V27.5447C29.5643 27.5579 29.564 27.5711 29.5639 27.5843C29.5638 27.8754 29.7067 28.1606 29.9692 28.3305C30.0681 28.3947 30.1749 28.4364 30.284 28.4572L31.6058 28.7743L31.1578 28.8818ZM33.6296 27.5046C33.4019 27.4041 33.1646 27.3237 32.9201 27.265L31.3371 26.8852V26.6088C31.6228 26.4089 31.8811 26.1727 32.1051 25.9063C32.5008 26.5167 33.0208 27.0386 33.6296 27.4362V27.5046ZM37.4782 28.8081L36.4413 31.1693L35.4019 28.8021V28.169C35.7402 28.2388 36.0903 28.2756 36.4488 28.2756C36.8012 28.2756 37.1454 28.2399 37.4782 28.1724V28.8081ZM36.4488 26.5012C34.572 26.5013 33.0452 24.9726 33.0452 23.0935V22.1565H34.2564C35.6616 22.1565 36.9977 21.6333 38.0218 20.7002L39.8491 21.7751V23.2233C39.7807 25.0423 38.2822 26.5012 36.4488 26.5012ZM39.2505 27.5074V27.4473C39.8642 27.0501 40.3888 26.5268 40.7876 25.9138C41.0101 26.1771 41.2662 26.4108 41.5492 26.6088V26.8852L39.9661 27.265C39.7194 27.3243 39.48 27.4057 39.2505 27.5074ZM49.0858 32.0915H45.482C44.8292 30.517 43.4581 29.3008 41.7137 28.8835L41.2688 28.7771L42.5977 28.4583C42.7083 28.4377 42.8169 28.3955 42.9172 28.3305C43.1792 28.1608 43.3217 27.8757 43.3217 27.5846C43.3217 27.5777 43.3216 27.5707 43.3214 27.5637V27.2916C43.4833 27.3118 43.6478 27.3234 43.815 27.3234C43.9834 27.3234 44.1491 27.3116 44.3122 27.2911V27.5894C44.3122 28 44.5936 28.3569 44.9925 28.4523L47.2492 28.992C48.3306 29.2507 49.0858 30.2087 49.0858 31.3217V32.0915Z" fill="url(#paint4_linear)"/>
<path d="M37.0633 36.753C36.8977 36.5879 36.67 36.4939 36.4369 36.4939C36.2029 36.4939 35.9752 36.5879 35.8104 36.753C35.6447 36.9189 35.5508 37.1469 35.5508 37.3811C35.5508 37.6144 35.6447 37.8424 35.8104 38.0083C35.9752 38.1733 36.203 38.2683 36.4369 38.2683C36.67 38.2683 36.8977 38.1733 37.0633 38.0083C37.2281 37.8424 37.323 37.6144 37.323 37.3811C37.323 37.1469 37.2282 36.9189 37.0633 36.753Z" fill="url(#paint5_linear)"/>
<path d="M36.4369 10.2627C35.9476 10.2627 35.5508 10.6599 35.5508 11.1499V12.4774C35.5508 12.9673 35.9476 13.3645 36.4369 13.3645C36.9262 13.3645 37.323 12.9673 37.323 12.4774V11.1499C37.323 10.6599 36.9263 10.2627 36.4369 10.2627Z" fill="url(#paint6_linear)"/>
<path d="M33.1724 13.1557L32.2429 12.2259C31.8967 11.8796 31.3357 11.8798 30.9897 12.2264C30.6438 12.5731 30.6441 13.1348 30.9903 13.4811L31.92 14.4109C32.0929 14.5839 32.3196 14.6704 32.5462 14.6704C32.7731 14.6704 33 14.5837 33.173 14.4103C33.5188 14.0637 33.5186 13.5019 33.1724 13.1557Z" fill="url(#paint7_linear)"/>
<path d="M41.8625 12.2486C41.5163 11.9023 40.9551 11.9025 40.6093 12.2492L39.6869 13.1735C39.3411 13.5202 39.3414 14.0819 39.6876 14.4282C39.8606 14.6013 40.0872 14.6878 40.3139 14.6878C40.5408 14.6878 40.7678 14.601 40.9407 14.4276L41.8631 13.5032C42.209 13.1566 42.2087 12.5948 41.8625 12.2486Z" fill="url(#paint8_linear)"/>
</g>
<defs>
<filter id="filter0_d" x="0.512041" y="0.804918" width="71.8506" height="71.9054" filterUnits="userSpaceOnUse" color-interpolation-filters="sRGB">
<feFlood flood-opacity="0" result="BackgroundImageFix"/>
<feColorMatrix in="SourceAlpha" type="matrix" values="0 0 0 0 0 0 0 0 0 0 0 0 0 0 0 0 0 0 127 0"/>
<feOffset dy="3.78311"/>
<feGaussianBlur stdDeviation="6.62044"/>
<feColorMatrix type="matrix" values="0 0 0 0 0.996078 0 0 0 0 0.823529 0 0 0 0 0.188235 0 0 0 0.4 0"/>
<feBlend mode="normal" in2="BackgroundImageFix" result="effect1_dropShadow"/>
<feBlend mode="normal" in="SourceGraphic" in2="effect1_dropShadow" result="shape"/>
</filter>
<linearGradient id="paint0_linear" x1="23.6495" y1="51.2867" x2="19.4034" y2="53.4806" gradientUnits="userSpaceOnUse">
<stop stop-color="#FED230"/>
<stop offset="1" stop-color="#FE8730"/>
</linearGradient>
<linearGradient id="paint1_linear" x1="33.728" y1="17.7269" x2="3.60295" y2="29.3269" gradientUnits="userSpaceOnUse">
<stop stop-color="#FED230"/>
<stop offset="1" stop-color="#FE8730"/>
</linearGradient>
<linearGradient id="paint2_linear" x1="20.4831" y1="49.0757" x2="18.2321" y2="50.441" gradientUnits="userSpaceOnUse">
<stop stop-color="#FED230"/>
<stop offset="1" stop-color="#FE8730"/>
</linearGradient>
<linearGradient id="paint3_linear" x1="59.1217" y1="17.7272" x2="28.9965" y2="29.3274" gradientUnits="userSpaceOnUse">
<stop stop-color="#FED230"/>
<stop offset="1" stop-color="#FE8730"/>
</linearGradient>
<linearGradient id="paint4_linear" x1="50.8582" y1="10.3319" x2="19.0635" y2="34.3418" gradientUnits="userSpaceOnUse">
<stop stop-color="#FED230"/>
<stop offset="1" stop-color="#FE8730"/>
</linearGradient>
<linearGradient id="paint5_linear" x1="37.323" y1="36.133" x2="35.081" y2="37.4947" gradientUnits="userSpaceOnUse">
<stop stop-color="#FED230"/>
<stop offset="1" stop-color="#FE8730"/>
</linearGradient>
<linearGradient id="paint6_linear" x1="37.323" y1="9.63181" x2="34.5845" y2="10.5832" gradientUnits="userSpaceOnUse">
<stop stop-color="#FED230"/>
<stop offset="1" stop-color="#FE8730"/>
</linearGradient>
<linearGradient id="paint7_linear" x1="33.4322" y1="11.4163" x2="30.0148" y2="13.4925" gradientUnits="userSpaceOnUse">
<stop stop-color="#FED230"/>
<stop offset="1" stop-color="#FE8730"/>
</linearGradient>
<linearGradient id="paint8_linear" x1="42.1223" y1="11.4401" x2="38.7128" y2="13.5101" gradientUnits="userSpaceOnUse">
<stop stop-color="#FED230"/>
<stop offset="1" stop-color="#FE8730"/>
</linearGradient>
</defs>
</svg>

<svg width="73" height="73" fill="none" xmlns="http://www.w3.org/2000/svg"><g filter="url(#filter0_d)"><path d="M23.486 54.285l-1.334-1.881a.885.885 0 10-1.445 1.027l1.334 1.882a.885.885 0 001.235.21.888.888 0 00.21-1.238z" fill="url(#paint0_linear)"/><path d="M33.709 54.617l-1.452-6.928a13.066 13.066 0 00-5.519-8.203l-3.1-2.086a3.115 3.115 0 00-3.952.404v-10.69a2.951 2.951 0 00-2.324-2.9 2.95 2.95 0 00-2.5.583 2.957 2.957 0 00-1.11 2.316V40.87a8.6 8.6 0 001.594 5.002l1.58 2.228a.885.885 0 001.236.21.888.888 0 00.21-1.237l-1.581-2.229a6.834 6.834 0 01-1.266-3.974V27.113c0-.364.163-.704.447-.932.284-.228.65-.314 1.006-.235.55.123.935.603.935 1.167v10.914c0 1.545.567 3.017 1.597 4.162.044.053.09.106.138.156L21.58 44.4l.912.972.01.009 1.367 1.457a.885.885 0 101.292-1.215c-.016-.017-1.053-1.123-2.238-2.383l-2.032-2.165-.015-.017a1.498 1.498 0 01.03-1.962 1.339 1.339 0 011.744-.223l3.1 2.087a11.3 11.3 0 014.773 7.094l1.451 6.928a.887.887 0 101.735-.364z" fill="url(#paint1_linear)"/><path d="M20.318 49.818l-.005-.008a.886.886 0 10-1.443 1.03l.006.009a.884.884 0 001.236.207.888.888 0 00.206-1.238z" fill="url(#paint2_linear)"/><path d="M58.012 24.797a2.95 2.95 0 00-2.5-.583 2.951 2.951 0 00-2.323 2.9v10.69a3.115 3.115 0 00-3.953-.404l-3.1 2.087a13.066 13.066 0 00-5.519 8.202l-1.451 6.928a.887.887 0 001.734.364l1.452-6.928a11.3 11.3 0 014.773-7.094l3.1-2.087a1.339 1.339 0 011.744.223c.5.564.506 1.39.031 1.96-.005.006-.01.013-.017.019l-4.27 4.549a.885.885 0 101.292 1.215c.012-.014 3.633-3.868 4.222-4.492a3.35 3.35 0 00.137-.157 6.203 6.203 0 001.597-4.162V27.113c0-.564.385-1.044.936-1.167.355-.079.722.007 1.006.235.284.228.447.568.447.932V40.87a6.834 6.834 0 01-1.266 3.974l-6.695 9.442a.888.888 0 00.722 1.401c.277 0 .55-.13.723-.373l6.695-9.442a8.6 8.6 0 001.593-5.002V27.113c0-.905-.405-1.75-1.11-2.316z" fill="url(#paint3_linear)"/><path d="M47.661 27.266l-1.576-.377v-.283a3.97 3.97 0 001.696-3.253V21.3c0-2.19-1.779-3.97-3.966-3.97-.981 0-1.88.359-2.573.952a5.183 5.183 0 00-4.793-3.23 5.183 5.183 0 00-4.796 3.237 3.945 3.945 0 00-2.582-.96 3.973 3.973 0 00-3.966 3.97v2.053a3.97 3.97 0 001.697 3.253v.283l-1.577.377a4.155 4.155 0 00-3.197 4.056v1.657c0 .49.397.887.886.887h4.072c-.006.107-.01.215-.01.325v3.19c0 .49.396.887.886.887h5.326a.887.887 0 000-1.775h-.915V34.66a.887.887 0 10-1.772 0v1.834h-1.753V34.19a3.672 3.672 0 012.823-3.584l2.431-.583 1.628 3.707c.141.322.46.53.81.53h.001c.351 0 .67-.208.811-.53l1.626-3.701 2.424.58a3.672 3.672 0 012.825 3.583v2.3h-1.752V34.66a.887.887 0 10-1.773 0v1.834h-1.004a.887.887 0 000 1.774h5.415c.49 0 .886-.397.886-.887v-3.188c0-.11-.004-.219-.01-.327h4.083c.49 0 .886-.397.886-.887v-1.657a4.155 4.155 0 00-3.197-4.056zm-3.846-8.161c1.161 0 2.114.907 2.19 2.05h-1.233a6.452 6.452 0 01-2.971-.724 2.197 2.197 0 012.014-1.326zm-2.194 4.118c.002-.043.004-.086.004-.13v-.79a8.223 8.223 0 003.147.627h1.237v.423a2.198 2.198 0 01-2.194 2.196 2.197 2.197 0 01-2.194-2.196v-.13zm-8.576-2.988a3.41 3.41 0 013.404-3.407 3.41 3.41 0 013.36 2.866l-1.491-.878a.885.885 0 00-1.128.196 3.816 3.816 0 01-2.934 1.37h-1.21v-.147zm-3.974-1.13c.901 0 1.677.546 2.014 1.326a6.452 6.452 0 01-2.97.725h-1.233a2.198 2.198 0 012.19-2.051zm-2.193 3.825h1.236a8.223 8.223 0 003.151-.628v1.05a2.197 2.197 0 01-2.194 2.197 2.197 2.197 0 01-2.193-2.196v-.423zm4.28 5.952a5.436 5.436 0 00-3.766 3.21h-3.591v-.77c0-1.113.755-2.071 1.836-2.33l2.257-.54a.887.887 0 00.68-.863v-.298a3.982 3.982 0 00.99 0v.294a.887.887 0 00.72.872l1.322.317-.448.108zm2.472-1.377a4.236 4.236 0 00-.71-.24l-1.583-.38v-.276c.286-.2.544-.436.768-.703a5.22 5.22 0 001.525 1.53v.069zm3.848 1.303l-1.037 2.361-1.04-2.367v-.633a5.176 5.176 0 002.077.003v.636zm-1.03-2.307a3.41 3.41 0 01-3.403-3.408v-.936h1.211a5.58 5.58 0 003.766-1.457l1.827 1.075v1.448a3.409 3.409 0 01-3.4 3.278zm2.803 1.006v-.06a5.217 5.217 0 001.537-1.533c.222.263.478.497.761.695v.276l-1.583.38c-.247.06-.486.14-.715.242zm9.835 4.585h-3.604a5.436 5.436 0 00-3.768-3.208l-.445-.107 1.329-.319a.884.884 0 00.723-.894v-.272a3.982 3.982 0 00.991 0v.297c0 .411.282.768.68.863l2.257.54a2.387 2.387 0 011.837 2.33v.77z" fill="url(#paint4_linear)"/><path d="M37.063 36.753a.89.89 0 00-1.512.628.89.89 0 00.886.887c.233 0 .46-.095.626-.26a.896.896 0 00.26-.627.896.896 0 00-.26-.628z" fill="url(#paint5_linear)"/><path d="M36.437 10.263a.887.887 0 00-.886.887v1.327a.887.887 0 101.772 0V11.15a.887.887 0 00-.886-.887z" fill="url(#paint6_linear)"/><path d="M33.172 13.156l-.93-.93a.885.885 0 10-1.252 1.255l.93.93a.883.883 0 001.253 0 .888.888 0 000-1.255z" fill="url(#paint7_linear)"/><path d="M41.862 12.249a.885.885 0 00-1.253 0l-.922.925a.888.888 0 00.627 1.514.883.883 0 00.627-.26l.922-.925a.888.888 0 000-1.254z" fill="url(#paint8_linear)"/></g><defs><linearGradient id="paint0_linear" x1="23.649" y1="51.287" x2="19.403" y2="53.481" gradientUnits="userSpaceOnUse"><stop stop-color="#FED230"/><stop offset="1" stop-color="#FE8730"/></linearGradient><linearGradient id="paint1_linear" x1="33.728" y1="17.727" x2="3.603" y2="29.327" gradientUnits="userSpaceOnUse"><stop stop-color="#FED230"/><stop offset="1" stop-color="#FE8730"/></linearGradient><linearGradient id="paint2_linear" x1="20.483" y1="49.076" x2="18.232" y2="50.441" gradientUnits="userSpaceOnUse"><stop stop-color="#FED230"/><stop offset="1" stop-color="#FE8730"/></linearGradient><linearGradient id="paint3_linear" x1="59.122" y1="17.727" x2="28.997" y2="29.327" gradientUnits="userSpaceOnUse"><stop stop-color="#FED230"/><stop offset="1" stop-color="#FE8730"/></linearGradient><linearGradient id="paint4_linear" x1="50.858" y1="10.332" x2="19.064" y2="34.342" gradientUnits="userSpaceOnUse"><stop stop-color="#FED230"/><stop offset="1" stop-color="#FE8730"/></linearGradient><linearGradient id="paint5_linear" x1="37.323" y1="36.133" x2="35.081" y2="37.495" gradientUnits="userSpaceOnUse"><stop stop-color="#FED230"/><stop offset="1" stop-color="#FE8730"/></linearGradient><linearGradient id="paint6_linear" x1="37.323" y1="9.632" x2="34.584" y2="10.583" gradientUnits="userSpaceOnUse"><stop stop-color="#FED230"/><stop offset="1" stop-color="#FE8730"/></linearGradient><linearGradient id="paint7_linear" x1="33.432" y1="11.416" x2="30.015" y2="13.492" gradientUnits="userSpaceOnUse"><stop stop-color="#FED230"/><stop offset="1" stop-color="#FE8730"/></linearGradient><linearGradient id="paint8_linear" x1="42.122" y1="11.44" x2="38.713" y2="13.51" gradientUnits="userSpaceOnUse"><stop stop-color="#FED230"/><stop offset="1" stop-color="#FE8730"/></linearGradient><filter id="filter0_d" x=".512" y=".805" width="71.851" height="71.905" filterUnits="userSpaceOnUse" color-interpolation-filters="sRGB"><feFlood flood-opacity="0" result="BackgroundImageFix"/><feColorMatrix in="SourceAlpha" values="0 0 0 0 0 0 0 0 0 0 0 0 0 0 0 0 0 0 127 0"/><feOffset dy="3.783"/><feGaussianBlur stdDeviation="6.62"/><feColorMatrix values="0 0 0 0 0.996078 0 0 0 0 0.823529 0 0 0 0 0.188235 0 0 0 0.4 0"/><feBlend in2="BackgroundImageFix" result="effect1_dropShadow"/><feBlend in="SourceGraphic" in2="effect1_dropShadow" result="shape"/></filter></defs></svg>
